lib/logo_tmp/nrk-logo-nrk-klassisk-on-light.svg

<svg width="116" height="16" viewBox="0 0 116 16" fill="none" xmlns="http://www.w3.org/2000/svg">
<path d="M0 15V1.00123H4.59339V15H0ZM10.8428 3.2292L13.4844 15H8.45737L5.30307 1.00123H8.12254C8.76907 0.99284 9.39641 1.22075 9.88691 1.64208C10.3782 2.04574 10.7158 2.60611 10.8428 3.2292ZM14.1744 15V1.00123H18.7678V15H14.1744ZM22.2372 6.32474C21.7422 6.32957 21.2552 6.20006 20.828 5.95008C20.4064 5.70643 20.0563 5.35624 19.8127 4.93466C19.5624 4.50735 19.4329 4.02018 19.4378 3.525C19.4321 3.03283 19.5618 2.54857 19.8127 2.12512C20.0589 1.70811 20.4086 1.36174 20.828 1.11957C21.2553 0.869879 21.7423 0.740393 22.2372 0.744907C22.7292 0.739608 23.2133 0.86921 23.6369 1.11957C24.0521 1.36386 24.3981 1.70995 24.6424 2.12512C24.893 2.54869 25.0226 3.03287 25.0172 3.525C25.0218 4.02014 24.8923 4.50722 24.6424 4.93466C24.4007 5.3544 24.0542 5.70429 23.6369 5.95008C23.2133 6.20093 22.7289 6.33057 22.2366 6.32474H22.2372ZM25.7269 15V1.00123H30.3207V15H25.7269ZM36.136 8.65123C36.1489 8.66481 36.2475 8.82582 36.4317 9.13428C36.6159 9.44273 36.8558 9.83709 37.1513 10.3173C37.447 10.7973 37.759 11.3066 38.0874 11.8453C38.4157 12.384 38.7247 12.8934 39.0143 13.3734C39.3028 13.8534 39.6313 14.3955 40 15H34.9531C34.6375 14.4873 34.3515 14.024 34.0952 13.61C33.8389 13.1959 33.5665 12.749 33.2778 12.2692C32.9884 11.7899 32.7024 11.3233 32.4196 10.8693C32.1368 10.4154 31.8938 10.0178 31.6905 9.67653C31.4863 9.33499 31.3449 9.10494 31.2663 8.98642C31.0713 8.69231 30.9559 8.35264 30.9315 8.00059C30.951 7.66272 31.0597 7.3361 31.2466 7.05392C31.3254 6.92248 31.47 6.68912 31.6803 6.35394C31.8906 6.01876 32.137 5.62119 32.4196 5.16114C32.7021 4.70109 32.9882 4.23116 33.2778 3.7514C33.5674 3.27163 33.8398 2.8214 34.0952 2.40078C34.3519 1.9806 34.6379 1.51398 34.9531 1.00091H40L36.0962 7.36937C35.9754 7.55845 35.9073 7.77636 35.8991 8.00059C35.9121 8.236 35.9942 8.46233 36.1353 8.65123H36.136Z" fill="#0A2343"/>
<path d="M55.9493 1.01161H53.4873L48.1367 7.17639H47.4014V1.01161H45.3333V14.9956H47.4014V8.67324H47.4709L53.2907 15.0153L56.1072 14.9953L49.4303 8.06236L55.9493 1.01161Z" fill="#6B046A"/>
<path d="M60.7846 13.5476C60.7159 13.5551 60.6469 13.5585 60.5778 13.5577C60.4295 13.5621 60.2819 13.5351 60.1448 13.4786C60.0254 13.4255 59.9231 13.3403 59.8494 13.2324C59.7639 13.1049 59.7068 12.9605 59.682 12.809C59.6465 12.6075 59.63 12.4032 59.6328 12.1987V0.125274L57.6237 0.420718V13.0851C57.6154 13.417 57.6688 13.7476 57.7813 14.06C57.8758 14.3138 58.0314 14.5405 58.2343 14.7198C58.4365 14.8931 58.6757 15.0177 58.9335 15.0842C59.2197 15.1584 59.5143 15.1948 59.8099 15.1925C59.9678 15.1925 60.1186 15.1859 60.263 15.1725C60.4074 15.159 60.5486 15.1396 60.6865 15.1137C60.8243 15.0878 60.9392 15.0612 61.0312 15.0349L61.2281 13.4786C61.1493 13.4922 61.0705 13.5053 60.9917 13.518C60.9129 13.5307 60.8439 13.5406 60.7846 13.5476Z" fill="#6B046A"/>
<path d="M71.765 13.7548C71.621 13.768 71.476 13.7462 71.3423 13.6912C71.2085 13.6363 71.09 13.5499 70.9968 13.4393C70.8141 13.1238 70.7382 12.7578 70.7802 12.3957L70.8196 8.33843C70.8239 7.91297 70.7709 7.48885 70.662 7.07755C70.5663 6.71708 70.4061 6.3769 70.1893 6.07341C69.9703 5.77651 69.6919 5.52836 69.372 5.34468C69.0004 5.13339 68.5984 4.98059 68.1803 4.89167C67.6692 4.78124 67.1473 4.72835 66.6244 4.73407C66.2096 4.73389 65.7953 4.76021 65.3839 4.81285C64.995 4.86173 64.6099 4.93733 64.2313 5.03905C63.8804 5.13447 63.5352 5.24966 63.1973 5.38407L62.961 7.0582C63.2892 6.93959 63.6011 6.8411 63.8966 6.76275C64.192 6.68441 64.4775 6.61876 64.7533 6.5658C65.0234 6.51403 65.2963 6.47783 65.5707 6.45745C65.8396 6.43776 66.1057 6.42792 66.3687 6.42792C66.7702 6.41931 67.171 6.46571 67.5599 6.5658C67.8438 6.63681 68.1049 6.77919 68.3182 6.97942C68.5082 7.17408 68.644 7.41496 68.7121 7.67826C68.7962 8.00307 68.8361 8.33775 68.8307 8.67322L68.8283 9.16762L66.5259 9.32322C65.7385 9.34519 64.9627 9.51905 64.2412 9.83528C63.7012 10.0715 63.2351 10.4492 62.8921 10.9284C62.6008 11.3547 62.4462 11.8597 62.4489 12.376C62.4452 12.8604 62.5638 13.3379 62.7936 13.7643C63.0344 14.2025 63.3969 14.5618 63.8374 14.7986C64.3747 15.0781 64.9752 15.2138 65.5805 15.1925C66.1477 15.2057 66.7123 15.112 67.2448 14.9165C67.7053 14.7362 68.1266 14.4687 68.4857 14.1286C68.6219 13.9978 68.7512 13.86 68.873 13.7157C68.9113 13.9197 68.9834 14.1158 69.0863 14.296C69.2619 14.5975 69.5319 14.8329 69.8545 14.9657C70.2111 15.1089 70.5929 15.1791 70.9771 15.1722C71.0953 15.1722 71.2102 15.1692 71.3218 15.1623C71.4314 15.156 71.5402 15.1396 71.6468 15.1134C71.7518 15.0868 71.8467 15.0639 71.9324 15.0445C72.0095 15.0269 72.0851 15.0039 72.1589 14.9756L72.3755 13.6556C72.2668 13.6931 72.1547 13.7196 72.0407 13.7347C71.9493 13.747 71.8572 13.7537 71.765 13.7548ZM68.4857 12.8684C68.2721 13.0371 68.041 13.1823 67.7963 13.3014C67.5526 13.4201 67.2943 13.5063 67.0281 13.5578C66.7524 13.6109 66.4722 13.6373 66.1914 13.6365C65.8703 13.6458 65.551 13.5853 65.2555 13.4593C65.0153 13.3548 64.8126 13.1795 64.6745 12.9567C64.5381 12.7207 64.4699 12.4513 64.4775 12.1788C64.4585 11.8505 64.5486 11.5252 64.7336 11.2534C64.9479 11.0031 65.2385 10.8301 65.5608 10.761C66.0639 10.6424 66.5804 10.5894 67.0971 10.6034H68.8218L68.8129 12.5582C68.7129 12.6709 68.6035 12.7746 68.4857 12.8684Z" fill="#6B046A"/>
<path d="M80.4701 10.4655C80.2685 10.2517 80.0362 10.069 79.7808 9.92359C79.5164 9.77242 79.2397 9.64392 78.9536 9.53951C78.7435 9.47385 78.5368 9.40492 78.3332 9.3327C78.1297 9.26048 77.9261 9.19484 77.7226 9.13575C77.5187 9.07666 77.3217 9.01427 77.1317 8.94862C76.9531 8.88793 76.7788 8.81548 76.6098 8.73167C76.448 8.64559 76.2932 8.5468 76.1469 8.43623C76.0119 8.33453 75.8981 8.20727 75.8121 8.06168C75.7252 7.91232 75.6809 7.74205 75.6838 7.56929C75.6787 7.37948 75.7266 7.19198 75.8223 7.02797C75.9251 6.86671 76.0675 6.73447 76.2359 6.64389C76.442 6.53068 76.6647 6.45082 76.8957 6.40723C77.1845 6.35194 77.4781 6.32566 77.7722 6.32877C77.9163 6.32877 78.0742 6.33568 78.2446 6.34848C78.415 6.36129 78.6024 6.38458 78.8062 6.41741C79.0101 6.45023 79.2126 6.49292 79.4167 6.54511C79.6209 6.59731 79.8271 6.65702 80.0372 6.72235C80.2318 6.7825 80.4223 6.85487 80.6077 6.93901L80.7462 5.34398C80.4965 5.23894 80.2503 5.14693 80.0076 5.06793C79.765 4.98956 79.5185 4.92379 79.269 4.87094C79.0254 4.8193 78.7787 4.78314 78.5305 4.76263C78.2869 4.74294 78.0479 4.7331 77.8113 4.7331C77.2672 4.72759 76.7246 4.79044 76.1962 4.92019C75.7445 5.03007 75.3149 5.21662 74.9261 5.47169C74.5734 5.70472 74.2854 6.02314 74.0887 6.39737C73.8832 6.80975 73.7818 7.26622 73.7933 7.72685C73.7874 8.05862 73.8407 8.38878 73.9509 8.70178C74.0447 8.96421 74.1848 9.20772 74.3645 9.42069C74.5397 9.62158 74.7419 9.79722 74.9653 9.94262C75.1978 10.0953 75.4453 10.2239 75.7038 10.3267C75.8478 10.3792 75.9989 10.4316 76.1571 10.4839C76.3147 10.5368 76.4687 10.586 76.62 10.6316C76.7714 10.6773 76.918 10.7239 77.0631 10.7695C77.2082 10.8152 77.3484 10.8617 77.4863 10.9074C77.6242 10.953 77.7587 10.9963 77.89 11.0357C78.0663 11.098 78.2376 11.1737 78.4025 11.2619C78.5469 11.3386 78.6824 11.4312 78.8062 11.538C78.9151 11.6334 79.0024 11.7509 79.0623 11.8827C79.1221 12.0191 79.1523 12.1667 79.1506 12.3156C79.1576 12.4613 79.1321 12.6067 79.0759 12.7413C79.0197 12.8759 78.9342 12.9962 78.8256 13.0936C78.5818 13.2975 78.2905 13.4365 77.9787 13.4977C77.6134 13.5782 77.2403 13.6177 76.8662 13.6155C76.6322 13.614 76.3986 13.5977 76.1667 13.5666C75.9108 13.5338 75.6418 13.4879 75.3595 13.4288C75.0772 13.3697 74.7882 13.2974 74.4928 13.2121C74.1972 13.1268 73.8984 13.0316 73.5967 12.9265L73.6751 14.6006C74.0163 14.719 74.3282 14.8142 74.6107 14.8862C74.8932 14.9582 75.1625 15.0207 75.4185 15.0737C75.6651 15.1248 75.9152 15.1578 76.1667 15.1722C76.4096 15.1857 76.6558 15.1924 76.9053 15.1922C77.4547 15.195 78.0029 15.1388 78.5403 15.0244C79.0134 14.9285 79.4664 14.752 79.8797 14.5025C80.2521 14.2751 80.5605 13.9567 80.7758 13.5771C81.0011 13.1603 81.113 12.6915 81.1001 12.2178C81.1085 11.8723 81.0518 11.5284 80.933 11.2038C80.8271 10.9305 80.67 10.6799 80.4701 10.4655Z" fill="#6B046A"/>
<path d="M89.7072 10.4656C89.5055 10.2518 89.2731 10.0691 89.0178 9.92359C88.7533 9.77235 88.4765 9.64385 88.1902 9.53951C87.9802 9.47386 87.7734 9.40492 87.5699 9.3327C87.3663 9.26049 87.1628 9.19484 86.9593 9.13576C86.7557 9.07667 86.5588 9.01428 86.3684 8.94862C86.1898 8.88788 86.0155 8.81543 85.8465 8.73168C85.6846 8.6456 85.5298 8.54681 85.3836 8.43623C85.2486 8.33455 85.135 8.20728 85.0492 8.06169C84.9621 7.91239 84.9177 7.74208 84.9208 7.5693C84.9155 7.37951 84.9634 7.19203 85.0589 7.02798C85.1615 6.86655 85.304 6.73427 85.4725 6.64389C85.6786 6.53068 85.9013 6.45082 86.1324 6.40724C86.4211 6.35197 86.7146 6.32569 87.0085 6.32878C87.153 6.32878 87.3105 6.33569 87.4815 6.34849C87.6526 6.36129 87.839 6.38459 88.0429 6.41741C88.2467 6.45024 88.4496 6.49293 88.6531 6.54512C88.8567 6.59731 89.0634 6.65703 89.2738 6.72235C89.4685 6.78249 89.6592 6.85487 89.8447 6.93902L89.9829 5.34399C89.7332 5.23895 89.487 5.14694 89.2443 5.06794C89.0017 4.98951 88.7551 4.92373 88.5057 4.87095C88.262 4.81931 88.0153 4.78314 87.7671 4.76264C87.5237 4.74294 87.2841 4.73311 87.0482 4.73311C86.5042 4.72754 85.9616 4.79039 85.4332 4.9202C84.9813 5.02997 84.5516 5.21652 84.1628 5.4717C83.8102 5.70472 83.5223 6.02315 83.3258 6.39738C83.1199 6.80963 83.0184 7.26619 83.0303 7.72686C83.0243 8.05865 83.0778 8.38883 83.1882 8.70179C83.2816 8.96439 83.4217 9.20796 83.6018 9.4207C83.7768 9.62172 83.979 9.79737 84.2025 9.94263C84.4351 10.0953 84.6826 10.2239 84.9411 10.3267C85.0851 10.3792 85.2361 10.4316 85.3941 10.4839C85.5517 10.5368 85.7057 10.586 85.857 10.6316C86.0083 10.6773 86.1553 10.7239 86.2998 10.7695C86.4442 10.8152 86.5854 10.8617 86.7232 10.9074C86.8611 10.953 86.9957 10.9963 87.1273 11.0357C87.3034 11.098 87.4745 11.1737 87.6391 11.2619C87.7838 11.3384 87.9193 11.431 88.0432 11.538C88.1521 11.6333 88.2393 11.7508 88.2989 11.8827C88.3593 12.0189 88.3896 12.1666 88.3879 12.3156C88.3949 12.4613 88.3694 12.6068 88.3131 12.7414C88.2568 12.8759 88.1712 12.9963 88.0626 13.0936C87.8188 13.2975 87.5275 13.4365 87.2156 13.4977C86.8503 13.5782 86.4772 13.6178 86.1032 13.6155C85.8693 13.614 85.6357 13.5977 85.4039 13.5667C85.1479 13.5338 84.8787 13.4879 84.5964 13.4288C84.3141 13.3697 84.0252 13.2975 83.7295 13.2121C83.4343 13.1268 83.1357 13.0316 82.8337 12.9265L82.9125 14.6006C83.2534 14.719 83.5652 14.8142 83.848 14.8862C84.1307 14.9582 84.3999 15.0207 84.6555 15.0737C84.9022 15.1249 85.1524 15.1578 85.4039 15.1722C85.6466 15.1858 85.8928 15.1924 86.1425 15.1922C86.6918 15.1951 87.2397 15.1388 87.777 15.0244C88.25 14.9286 88.7031 14.752 89.1163 14.5025C89.4889 14.2752 89.7974 13.9567 90.0128 13.5772C90.2382 13.1603 90.3502 12.6916 90.3374 12.2178C90.3457 11.8723 90.2889 11.5283 90.17 11.2038C90.0642 10.9305 89.9071 10.6799 89.7072 10.4656Z" fill="#6B046A"/>
<path d="M94.444 0.627468C94.2396 0.502566 94.0042 0.437739 93.7648 0.440376C93.5222 0.438526 93.2838 0.503226 93.0755 0.627468C92.8701 0.747674 92.6977 0.916833 92.5735 1.11986C92.4483 1.32408 92.3834 1.55954 92.3861 1.79907C92.3842 2.04169 92.449 2.28016 92.5735 2.48841C92.6939 2.69437 92.8672 2.86438 93.0755 2.9808C93.2859 3.09891 93.5235 3.16003 93.7648 3.15808C94.0029 3.16077 94.2375 3.09955 94.444 2.9808C94.6466 2.86343 94.8134 2.69324 94.9268 2.48841C95.0449 2.27798 95.1061 2.04037 95.1041 1.79907C95.1069 1.56089 95.0456 1.32632 94.9268 1.11986C94.8097 0.917829 94.6437 0.748503 94.444 0.627468Z" fill="#6B046A"/>
<path d="M92.7206 14.9953H94.7296V4.75349L92.7206 5.04893V14.9953Z" fill="#6B046A"/>
<path d="M104.026 10.4656C103.824 10.2517 103.592 10.069 103.337 9.92359C103.072 9.77236 102.795 9.64386 102.509 9.53951C102.299 9.47386 102.092 9.40492 101.889 9.33271C101.685 9.26049 101.482 9.19484 101.278 9.13576C101.075 9.07667 100.878 9.01428 100.687 8.94862C100.509 8.88792 100.334 8.81547 100.166 8.73168C100.004 8.64568 99.8487 8.54688 99.7024 8.43624C99.5674 8.33452 99.4538 8.20726 99.3679 8.06169C99.2809 7.91239 99.2365 7.74208 99.2396 7.5693C99.2344 7.37951 99.2822 7.19203 99.3778 7.02798C99.4804 6.86657 99.6228 6.73429 99.7914 6.6439C99.9974 6.53069 100.22 6.45082 100.451 6.40724C100.74 6.35197 101.034 6.32568 101.328 6.32878C101.472 6.32878 101.63 6.33569 101.8 6.34849C101.971 6.36129 102.158 6.38459 102.362 6.41741C102.566 6.45024 102.768 6.49293 102.972 6.54512C103.175 6.59731 103.382 6.65703 103.593 6.72235C103.787 6.78251 103.978 6.85488 104.164 6.93902L104.302 5.34399C104.052 5.23895 103.806 5.14694 103.563 5.06794C103.32 4.98949 103.074 4.92371 102.825 4.87095C102.581 4.81931 102.334 4.78314 102.086 4.76264C101.843 4.74294 101.603 4.73311 101.367 4.73311C100.823 4.72754 100.28 4.79039 99.7519 4.9202C99.3 5.02995 98.8704 5.21651 98.4816 5.4717C98.129 5.70473 97.841 6.02316 97.6445 6.39738C97.4386 6.80965 97.3372 7.26619 97.3491 7.72686C97.3431 8.05866 97.3966 8.38885 97.507 8.70179C97.6004 8.96439 97.7405 9.20796 97.9206 9.4207C98.0957 9.62166 98.2979 9.79731 98.5214 9.94263C98.7539 10.0953 99.0014 10.2239 99.26 10.3267C99.404 10.3792 99.5549 10.4316 99.7129 10.4839C99.8709 10.5362 100.025 10.5855 100.176 10.6316C100.326 10.678 100.474 10.724 100.619 10.7695C100.763 10.8151 100.904 10.861 101.042 10.9074C101.18 10.9536 101.315 10.9963 101.446 11.0357C101.622 11.098 101.794 11.1737 101.958 11.2619C102.103 11.3385 102.238 11.4311 102.362 11.538C102.471 11.6332 102.558 11.7508 102.618 11.8827C102.678 12.0189 102.708 12.1666 102.707 12.3156C102.714 12.4613 102.688 12.6067 102.632 12.7413C102.576 12.8759 102.49 12.9962 102.382 13.0936C102.138 13.2974 101.846 13.4364 101.534 13.4977C101.169 13.5782 100.796 13.6178 100.422 13.6155C100.188 13.614 99.9546 13.5977 99.7228 13.5667C99.4667 13.5338 99.1976 13.4879 98.9153 13.4288C98.633 13.3697 98.3439 13.2975 98.0483 13.2121C97.7533 13.1268 97.4547 13.0316 97.1525 12.9265L97.2312 14.6006C97.5724 14.719 97.8843 14.8142 98.1668 14.8862C98.4493 14.9582 98.7185 15.0207 98.9743 15.0737C99.221 15.1249 99.4712 15.1578 99.7228 15.1722C99.9655 15.1858 100.212 15.1924 100.461 15.1922C101.011 15.195 101.559 15.1388 102.096 15.0244C102.569 14.9285 103.022 14.752 103.435 14.5025C103.808 14.2751 104.116 13.9566 104.332 13.5772C104.557 13.1603 104.669 12.6916 104.656 12.2178C104.664 11.8723 104.608 11.5283 104.489 11.2038C104.383 10.9305 104.226 10.6799 104.026 10.4656Z" fill="#6B046A"/>
<path d="M113.107 14.9953H115.707L110.93 9.61175L115.609 4.95044H113.147L109.776 8.65325H109.05V0.125L107.041 0.420404V14.9953H109.05V10.1698H109.083L113.107 14.9953Z" fill="#6B046A"/>
</svg>

<svg xmlns="http://www.w3.org/2000/svg" viewBox="0 0 116 16"><path fill="#0A2343" d="M0 15V1.001h4.593V15H0ZM10.843 3.23 13.484 15H8.457L5.303 1.001h2.82a2.655 2.655 0 0 1 1.764.641c.491.404.829.964.956 1.587ZM14.174 15V1.001h4.594V15h-4.594Zm8.063-8.675a2.737 2.737 0 0 1-1.409-.375 2.778 2.778 0 0 1-1.015-1.015 2.735 2.735 0 0 1-.375-1.41 2.685 2.685 0 0 1 .375-1.4 2.812 2.812 0 0 1 3.824-1.005c.415.244.761.59 1.005 1.005.251.424.38.908.375 1.4.005.495-.125.982-.375 1.41a2.8 2.8 0 0 1-1.005 1.015c-.424.25-.908.38-1.4.375ZM25.727 15V1.001h4.594V15h-4.594Zm10.409-6.349c.013.014.111.175.296.483.184.309.424.703.72 1.183a384.573 384.573 0 0 1 1.862 3.056c.289.48.617 1.023.986 1.627h-5.047l-.858-1.39c-.256-.414-.529-.861-.817-1.34a118.3 118.3 0 0 0-.858-1.4 71.28 71.28 0 0 1-.73-1.193 21.1 21.1 0 0 0-.424-.69A2.04 2.04 0 0 1 30.932 8c.019-.338.128-.665.315-.947.078-.132.223-.365.433-.7a216.97 216.97 0 0 0 1.598-2.603l.817-1.35.858-1.4H40l-3.904 6.368c-.12.19-.189.407-.197.632.013.235.095.461.236.65h.001Z"/><path fill="#6B046A" d="M55.95 1.012h-2.463l-5.35 6.164H47.4V1.012h-2.068v13.984h2.068V8.673h.07l5.82 6.342 2.816-.02-6.677-6.933 6.52-7.05ZM60.785 13.548c-.07.007-.138.01-.207.01a1.055 1.055 0 0 1-.433-.08.704.704 0 0 1-.296-.246 1.07 1.07 0 0 1-.167-.423 3.26 3.26 0 0 1-.05-.61V.125l-2.008.296v12.664a2.68 2.68 0 0 0 .157.975c.095.254.25.48.453.66.203.173.442.298.7.364.286.074.58.11.876.109a4.904 4.904 0 0 0 .877-.08 3.9 3.9 0 0 0 .344-.078l.197-1.556-.236.039a5.033 5.033 0 0 1-.207.03ZM71.765 13.755a.896.896 0 0 1-.768-.316 1.693 1.693 0 0 1-.217-1.043l.04-4.058a4.74 4.74 0 0 0-.158-1.26c-.096-.36-.256-.701-.473-1.005a2.664 2.664 0 0 0-.817-.728 4.163 4.163 0 0 0-1.192-.453 7.005 7.005 0 0 0-1.556-.158c-.414 0-.829.026-1.24.079a8.553 8.553 0 0 0-1.153.226c-.35.095-.696.21-1.034.345l-.236 1.674c.328-.118.64-.217.936-.295.295-.079.58-.144.856-.197.27-.052.543-.088.818-.109.269-.02.535-.03.798-.03a4.4 4.4 0 0 1 1.19.139c.285.07.546.213.76.413.19.195.325.436.393.7.084.324.124.659.119.994l-.003.495-2.302.155a6.116 6.116 0 0 0-2.285.512 3.271 3.271 0 0 0-1.349 1.093 2.542 2.542 0 0 0-.443 1.448 2.88 2.88 0 0 0 .345 1.388c.24.439.603.798 1.043 1.035a3.51 3.51 0 0 0 1.743.394 4.524 4.524 0 0 0 1.665-.277 3.84 3.84 0 0 0 1.24-.787c.137-.131.266-.269.388-.413.038.204.11.4.213.58.176.302.446.537.769.67.356.143.738.213 1.122.206.118 0 .233-.003.345-.01.11-.006.218-.022.325-.049.105-.026.2-.05.285-.069a1.67 1.67 0 0 0 .227-.068l.216-1.32c-.108.037-.22.064-.334.079a2.27 2.27 0 0 1-.276.02Zm-3.28-.887a3.785 3.785 0 0 1-.689.433 3.098 3.098 0 0 1-.768.257c-.276.053-.556.08-.837.079-.32.009-.64-.052-.936-.178a1.288 1.288 0 0 1-.58-.502 1.473 1.473 0 0 1-.197-.778 1.491 1.491 0 0 1 .256-.926c.214-.25.505-.423.827-.492a5.99 5.99 0 0 1 1.536-.158h1.725l-.01 1.955c-.1.113-.209.217-.326.31ZM80.47 10.466a2.961 2.961 0 0 0-.69-.542 5.388 5.388 0 0 0-.826-.384 17.22 17.22 0 0 1-.62-.207 10.982 10.982 0 0 0-.611-.197c-.204-.06-.401-.122-.591-.187a4.258 4.258 0 0 1-.522-.217 3.474 3.474 0 0 1-.463-.296 1.291 1.291 0 0 1-.335-.374.947.947 0 0 1-.128-.493 1.02 1.02 0 0 1 .138-.541 1.12 1.12 0 0 1 .414-.384c.206-.113.429-.193.66-.237.288-.055.582-.081.876-.078a6.364 6.364 0 0 1 1.034.088c.204.033.407.076.61.128.205.052.411.112.621.177.195.06.385.133.57.217l.14-1.595a9.447 9.447 0 0 0-.74-.276 7.373 7.373 0 0 0-.738-.197 5.907 5.907 0 0 0-.739-.108 8.912 8.912 0 0 0-.719-.03 6.497 6.497 0 0 0-1.615.187c-.451.11-.881.297-1.27.552-.353.233-.64.551-.837.925a2.823 2.823 0 0 0-.296 1.33c-.006.332.048.662.158.975.094.262.234.506.414.719.175.2.377.376.6.522.233.152.48.28.739.384.144.052.295.105.453.157.158.053.312.102.463.148.151.045.298.092.443.138.145.045.285.092.423.137.138.046.273.09.404.129.176.062.348.138.513.226.144.077.28.17.403.276.11.095.196.213.256.345.06.136.09.284.089.433a.982.982 0 0 1-.325.778 1.886 1.886 0 0 1-.847.404c-.366.08-.739.12-1.113.118a5.529 5.529 0 0 1-.7-.05 10.4 10.4 0 0 1-.806-.137c-.283-.06-.572-.132-.867-.217-.296-.085-.595-.18-.896-.285l.078 1.674c.341.118.653.213.936.285.282.072.551.135.807.188.247.05.497.084.749.098.243.014.489.02.738.02a7.665 7.665 0 0 0 1.635-.168 4.21 4.21 0 0 0 1.34-.521 2.57 2.57 0 0 0 .896-.926c.225-.417.337-.886.324-1.36a2.755 2.755 0 0 0-.167-1.013 2.303 2.303 0 0 0-.463-.739ZM89.707 10.466a2.97 2.97 0 0 0-.69-.542 5.375 5.375 0 0 0-.827-.384c-.21-.066-.417-.135-.62-.207a11.009 11.009 0 0 0-.61-.197c-.204-.06-.401-.122-.592-.187a4.275 4.275 0 0 1-.521-.217 3.46 3.46 0 0 1-.463-.296 1.287 1.287 0 0 1-.335-.374.944.944 0 0 1-.128-.493 1.02 1.02 0 0 1 .138-.541c.103-.161.245-.294.413-.384.207-.113.43-.193.66-.237.29-.055.583-.081.876-.078a6.383 6.383 0 0 1 1.035.088c.204.033.407.076.61.128.204.052.41.112.62.177.196.06.386.133.572.217l.138-1.595a9.447 9.447 0 0 0-.739-.276 7.345 7.345 0 0 0-.738-.197 5.91 5.91 0 0 0-.739-.108 8.91 8.91 0 0 0-.719-.03 6.49 6.49 0 0 0-1.615.187c-.452.11-.881.297-1.27.552-.353.233-.64.551-.837.925a2.813 2.813 0 0 0-.296 1.33 2.78 2.78 0 0 0 .158.975c.094.262.234.506.414.719.175.2.377.376.6.522.233.152.48.28.74.384a16.032 16.032 0 0 0 .915.305c.151.045.298.092.443.138.144.045.285.092.423.137.138.046.273.09.404.129.176.062.348.138.512.226.145.076.28.169.404.276a1.012 1.012 0 0 1 .345.778.981.981 0 0 1-.325.778 1.886 1.886 0 0 1-.847.404c-.366.08-.739.12-1.113.118a5.544 5.544 0 0 1-.7-.05 10.45 10.45 0 0 1-.807-.137c-.282-.06-.57-.132-.867-.217-.295-.085-.593-.18-.895-.285l.078 1.674c.341.118.653.213.936.285.283.072.552.135.808.188.246.05.496.084.748.098.243.014.489.02.739.02a7.654 7.654 0 0 0 1.634-.168 4.207 4.207 0 0 0 1.34-.521 2.57 2.57 0 0 0 .896-.926c.225-.417.337-.885.324-1.36a2.755 2.755 0 0 0-.167-1.013 2.3 2.3 0 0 0-.463-.738ZM94.444.627a1.276 1.276 0 0 0-.68-.187 1.326 1.326 0 0 0-.688.187c-.206.12-.378.29-.502.493-.126.204-.19.44-.188.68-.002.242.063.48.188.688.12.206.293.376.502.493.21.118.448.179.689.177.238.003.472-.058.679-.177.203-.118.37-.288.483-.493.118-.21.18-.448.177-.689a1.33 1.33 0 0 0-.177-.68 1.392 1.392 0 0 0-.483-.492ZM92.72 14.995h2.01V4.753l-2.01.296v9.946ZM104.026 10.466a2.974 2.974 0 0 0-.689-.542 5.416 5.416 0 0 0-.828-.384c-.21-.066-.417-.135-.62-.207a10.986 10.986 0 0 0-.611-.197c-.203-.06-.4-.122-.591-.187a4.224 4.224 0 0 1-.521-.217 3.453 3.453 0 0 1-.464-.296 1.29 1.29 0 0 1-.334-.374.944.944 0 0 1-.128-.493 1.02 1.02 0 0 1 .138-.541c.102-.161.245-.294.413-.384.206-.113.429-.193.66-.237.289-.055.583-.081.877-.078a6.347 6.347 0 0 1 1.034.088c.204.033.406.076.61.128.203.052.41.112.621.177.194.06.385.133.571.217l.138-1.595a9.455 9.455 0 0 0-.739-.276 7.38 7.38 0 0 0-.738-.197 5.93 5.93 0 0 0-.739-.108 8.902 8.902 0 0 0-.719-.03 6.49 6.49 0 0 0-1.615.187c-.452.11-.882.297-1.27.552-.353.233-.641.551-.838.925a2.813 2.813 0 0 0-.295 1.33 2.78 2.78 0 0 0 .158.975c.093.262.233.506.414.719.175.2.377.376.6.522.233.152.48.28.739.384a16.023 16.023 0 0 0 .916.305l.443.138c.144.045.285.091.423.137.138.047.273.09.404.129.176.062.348.138.512.226.145.076.28.17.404.276a1.015 1.015 0 0 1 .345.778.986.986 0 0 1-.325.778 1.892 1.892 0 0 1-.848.404 5.02 5.02 0 0 1-1.112.118 5.541 5.541 0 0 1-.7-.05 10.441 10.441 0 0 1-.807-.137c-.282-.06-.571-.132-.867-.217a17.67 17.67 0 0 1-.895-.285l.078 1.674c.341.118.653.213.936.285.282.072.552.135.807.188.247.05.497.084.749.098.243.014.489.02.738.02a7.659 7.659 0 0 0 1.635-.168 4.206 4.206 0 0 0 1.339-.521c.373-.228.681-.546.897-.926.225-.417.337-.885.324-1.36a2.759 2.759 0 0 0-.167-1.013 2.301 2.301 0 0 0-.463-.738ZM113.107 14.995h2.6l-4.777-5.383 4.679-4.662h-2.462l-3.371 3.703h-.726V.125l-2.009.295v14.575h2.009V10.17h.033l4.024 4.825Z"/></svg>
